X: 10857
T: Drink Your Tea Love
R: waltz
M: 3/4
K: Gmajor
Bd|g2 f2 Bd|e2 d2 Bd|d2 c2 (3ABc|e2 d2 Bd|g2 f2 Bd|e2 d2 GB|dcBc AF|G4||
Bd|d2c2 (3ABc|e2 d2 Bd|d2 c2 (3ABc|e2 d2 Bd|g2 f2 Bd|e2 d2 GB|dcBc AF|G4||
Bc|d2 b2 a2|g2 d2 Bd|c2 A2 fa|g2 b2 Bc|d2 b2 a2|g2 d2 Bd|dcBc AF|G4||
Bd|c2 A2 fa|g2 b2 Bd|c2 A2 fa|g2 b2 Bc|d2 b2 a2|g2 d2 Bd|dcBc AF|G4||

